assets/img/braze_icons/activity.svg

<svg fill="none" height="24" viewBox="0 0 24 24" width="24" xmlns="http://www.w3.org/2000/svg"><path clip-rule="evenodd" d="m9 2c.43043 0 .81257.27543.94868.68377l5.05132 15.15393 2.0513-6.1539c.1361-.4084.5183-.6838.9487-.6838h4c.5523 0 1 .4477 1 1s-.4477 1-1 1h-3.2792l-2.7721 8.3162c-.1361.4084-.5183.6838-.9487.6838s-.8126-.2754-.9487-.6838l-5.0513-15.15392-2.05132 6.15392c-.13611.4084-.51825.6838-.94868.6838h-4c-.55228 0-1-.4477-1-1s.44772-1 1-1h3.27924l2.77208-8.31623c.13611-.40834.51825-.68377.94868-.68377z" fill="#801ed7" fill-rule="evenodd"/></svg>

<svg width="24" height="24" viewBox="0 0 24 24" fill="none" xmlns="http://www.w3.org/2000/svg">
<path fill-rule="evenodd" clip-rule="evenodd" d="M9 2C9.43043 2 9.81257 2.27543 9.94868 2.68377L15 17.8377L17.0513 11.6838C17.1874 11.2754 17.5696 11 18 11H22C22.5523 11 23 11.4477 23 12C23 12.5523 22.5523 13 22 13H18.7208L15.9487 21.3162C15.8126 21.7246 15.4304 22 15 22C14.5696 22 14.1874 21.7246 14.0513 21.3162L9 6.16228L6.94868 12.3162C6.81257 12.7246 6.43043 13 6 13H2C1.44772 13 1 12.5523 1 12C1 11.4477 1.44772 11 2 11H5.27924L8.05132 2.68377C8.18743 2.27543 8.56957 2 9 2Z" fill="#801ED7"/>
</svg>
